; generated by PrusaSlicer 2.4.1+win64 on 2022-04-05 at 03:04:09 UTC

; 

; external perimeters extrusion width = 0.60mm
; perimeters extrusion width = 0.50mm
; infill extrusion width = 0.50mm
; solid infill extrusion width = 0.50mm
; top infill extrusion width = 0.45mm
; first layer extrusion width = 0.42mm

; external perimeters extrusion width = 0.60mm
; perimeters extrusion width = 0.50mm
; infill extrusion width = 0.50mm
; solid infill extrusion width = 0.50mm
; top infill extrusion width = 0.45mm
; first layer extrusion width = 0.42mm

; external perimeters extrusion width = 0.60mm
; perimeters extrusion width = 0.50mm
; infill extrusion width = 0.50mm
; solid infill extrusion width = 0.50mm
; top infill extrusion width = 0.45mm
; first layer extrusion width = 0.42mm

M73 P0 R267
M73 Q0 S268
M201 X1000 Y1000 Z200 E5000 ; sets maximum accelerations, mm/sec^2
M203 X200 Y200 Z12 E120 ; sets maximum feedrates, mm / sec
M204 P1250 R1250 T1250 ; sets acceleration (P, T) and retract acceleration (R), mm/sec^2
M205 X8.00 Y8.00 Z0.40 E4.50 ; sets the jerk limits, mm/sec
M205 S0 T0 ; sets the minimum extruding and travel feed rate, mm/sec
M107
;TYPE:Custom
M862.3 P "MK3SMMU2S" ; printer model check
M862.1 P0.4 ; nozzle diameter check
M115 U3.10.1 ; tell printer latest fw version
G90 ; use absolute coordinates
M83 ; extruder relative mode
M104 S240 ; set extruder temp
M140 S85 ; set bed temp
Tx
M190 S85 ; wait for bed temp
M109 S240 ; wait for extruder temp
G28 W ; home all without mesh bed level
G80 ; mesh bed leveling

;go outside print area
G1 Y-3 F1000
G1 Z0.4 F1000
; select extruder
Tc
; purge line
G1 X55 F2000
G1 Z0.3 F1000
G92 E0
G1 X240 E25 F2200
G1 Y-2 F1000
G1 X55 E25 F1400
G1 Z0.2 F1000
G1 X5 E4 F1000

M221 S95
G92 E0

; Don't change E values below. Excessive value can damage the printer.

M907 E538 ; set extruder motor current
G21 ; set units to millimeters
G90 ; use absolute coordinates
M83 ; use relative distances for extrusion
M900 K0.08 ; Filament gcode LA 1.5
M900 K45 ; Filament gcode LA 1.0
M107
;LAYER_CHANGE
;Z:0.2
;HEIGHT:0.2
;BEFORE_LAYER_CHANGE
G92 E0.0
;0.2


G1 E-1 F2100
G1 Z.2 F720
;AFTER_LAYER_CHANGE
;0.2
G1 Z.4
G1 X43.222 Y39.369 F10800
G1 Z.2 F720
G1 E1 F2100
M204 S800
;TYPE:Skirt/Brim
;WIDTH:0.42
G1 F1200
G1 X59.088 Y21.95 E.73876
G1 X60.106 Y21.119 E.04119
G1 X60.908 Y20.627 E.02952
G1 X62.111 Y20.098 E.04119
G1 X63.381 Y19.762 E.04119
G1 X64.874 Y19.623 E.04703
G1 X183.061 Y19.63 E3.70565
G1 X184.368 Y19.762 E.04119
G1 X185.638 Y20.098 E.04119
G1 X186.84 Y20.627 E.04119
G1 X187.904 Y21.304 E.03952
G1 X232.786 Y57.95 E1.81676
G1 X233.662 Y58.93 E.04119
G1 X234.373 Y60.034 E.04119
G1 X235.018 Y61.591 E.05284
G1 X235.296 Y62.875 E.04119
G1 X235.377 Y64 E.03537
G1 X235.377 Y182 E3.69981
G1 X235.238 Y183.494 E.04703
G1 X234.902 Y184.764 E.04119
G1 X234.542 Y185.634 E.02952
G1 X233.662 Y187.07 E.05284
G1 X232.786 Y188.05 E.04119
G1 X231.769 Y188.881 E.04119
G1 X230.634 Y189.542 E.04119
G1 X229.764 Y189.902 E.02952
G1 X228.494 Y190.238 E.04119
G1 X227.186 Y190.37 E.04119
G1 X198.865 Y190.373 E.888
G1 X22.865 Y180.373 E5.52726
G1 X21.139 Y180.159 E.05452
G1 X19.583 Y179.64 E.05144
G1 X18.159 Y178.826 E.05144
G1 X16.92 Y177.751 E.05144
G1 X15.915 Y176.454 E.05144
G1 X15.182 Y174.986 E.05144
G1 X14.75 Y173.404 E.05144
G1 X14.623 Y172 E.04419
G1 X14.623 Y74 E3.07272
G1 X14.841 Y72.139 E.05874
M73 P0 R266
G1 X15.182 Y71.014 E.03688
G1 X15.915 Y69.546 E.05144
G1 X17 Y68.157 E.05525
G1 X43.181 Y39.413 E1.21907
M204 S1000
; printing object Mount.stl id:1 copy 0
;WIPE_START
G1 F8640
G1 X45.952 Y36.372 E-.95
;WIPE_END
G1 E-.05 F2100
G1 Z.4 F720
G1 X208.322 Y155.037 F10800
G1 Z.2 F720
G1 E1 F2100
M204 S800
;TYPE:Perimeter
G1 F1200
G1 X208.99 Y154.177 E.03414
G1 X209.786 Y153.487 E.03303
G1 X210.698 Y152.96 E.03303
G1 X211.694 Y152.616 E.03303
G1 X212.669 Y152.475 E.0309
G1 X213.785 Y152.515 E.03501
G1 X214.812 Y152.764 E.03314
G1 X215.77 Y153.202 E.03303
G1 X216.628 Y153.813 E.03303
G1 X217.355 Y154.575 E.03303
G1 X217.925 Y155.461 E.03303
G1 X218.316 Y156.439 E.03303
G1 X218.516 Y157.473 E.03303
G1 X218.516 Y158.527 E.03303
G1 X218.316 Y159.561 E.03303
G1 X217.925 Y160.539 E.03303
G1 X217.355 Y161.425 E.03303
G1 X216.628 Y162.187 E.03303
G1 X215.77 Y162.798 E.03303
G1 X214.812 Y163.236 E.03303
G1 X213.789 Y163.484 E.03303
G1 X212.736 Y163.534 E.03303
G1 X211.694 Y163.384 E.03303
G1 X210.698 Y163.04 E.03303
G1 X209.786 Y162.513 E.03303
G1 X208.99 Y161.823 E.03303
G1 X208.339 Y160.996 E.03303
G1 X207.856 Y160.059 E.03303
G1 X207.559 Y159.049 E.03303
G1 X207.459 Y158 E.03303
M73 Q0 S267
G1 X207.559 Y156.951 E.03303
G1 X207.856 Y155.941 E.03303
G1 X208.295 Y155.09 E.03002
M204 S1000
G1 X208.658 Y155.209 F10800
M204 S800
;TYPE:External perimeter
G1 F1200
G1 X209.264 Y154.438 E.03077
G1 X210.006 Y153.795 E.03077
G1 X210.856 Y153.305 E.03077
G1 X211.783 Y152.984 E.03077
G1 X212.69 Y152.853 E.02871
G1 X213.733 Y152.89 E.03275
G1 X214.688 Y153.122 E.03081
G1 X215.581 Y153.53 E.03077
G1 X216.38 Y154.099 E.03077
G1 X217.058 Y154.809 E.03077
G1 X217.588 Y155.635 E.03077
G1 X217.953 Y156.546 E.03077
G1 X218.138 Y157.509 E.03077
G1 X218.138 Y158.491 E.03077
G1 X217.953 Y159.454 E.03077
G1 X217.588 Y160.365 E.03077
G1 X217.057 Y161.191 E.03077
G1 X216.38 Y161.901 E.03077
G1 X215.581 Y162.47 E.03077
G1 X214.688 Y162.878 E.03077
G1 X213.735 Y163.109 E.03077
G1 X212.754 Y163.156 E.03077
G1 X211.783 Y163.016 E.03077
G1 X210.856 Y162.695 E.03077
G1 X210.006 Y162.205 E.03077
G1 X209.264 Y161.562 E.03077
G1 X208.658 Y160.791 E.03077
G1 X208.208 Y159.918 E.03077
G1 X207.931 Y158.977 E.03077
G1 X207.838 Y158 E.03077
G1 X207.931 Y157.023 E.03077
G1 X208.208 Y156.082 E.03077
G1 X208.63 Y155.263 E.02889
M204 S1000
G1 X208.474 Y154.854 F10800
;WIPE_START
G1 F8640
G1 X209.264 Y154.438 E-.24021
G1 X210.006 Y153.795 E-.22659
G1 X210.856 Y153.305 E-.22659
G1 X211.783 Y152.984 E-.22659
G1 X211.912 Y152.965 E-.03001
;WIPE_END
G1 E-.05 F2100
G1 Z.4 F720
G1 X201.719 Y180.299 F10800
G1 Z.2 F720
G1 E1 F2100
M204 S800
;TYPE:Perimeter
G1 F1200
G1 X202.397 Y180.58 E.02302
G1 X202.976 Y181.024 E.02287
G1 X203.42 Y181.603 E.02287
G1 X203.699 Y182.277 E.02287
G1 X203.794 Y183 E.02287
G1 X203.699 Y183.723 E.02287
G1 X203.42 Y184.397 E.02287
G1 X202.976 Y184.976 E.02287
G1 X202.397 Y185.42 E.02287
G1 X201.723 Y185.699 E.02287
G1 X201 Y185.794 E.02287
G1 X200.277 Y185.699 E.02287
G1 X199.603 Y185.42 E.02287
G1 X199.024 Y184.976 E.02287
G1 X198.58 Y184.397 E.02287
G1 X198.301 Y183.723 E.02287
G1 X198.206 Y183 E.02287
G1 X198.301 Y182.277 E.02287
G1 X198.58 Y181.603 E.02287
G1 X199.024 Y181.024 E.02287
G1 X199.603 Y180.58 E.02287
G1 X200.277 Y180.301 E.02287
G1 X200.956 Y180.212 E.02148
G1 X201.659 Y180.293 E.02218
M204 S1000
G1 X201.623 Y180.668 F10800
M204 S800
;TYPE:External perimeter
G1 F1200
G1 X202.207 Y180.91 E.01981
G1 X202.707 Y181.293 E.01976
G1 X203.09 Y181.793 E.01976
G1 X203.331 Y182.375 E.01976
G1 X203.414 Y183 E.01976
G1 X203.331 Y183.625 E.01976
G1 X203.09 Y184.207 E.01976
G1 X202.707 Y184.707 E.01976
G1 X202.207 Y185.09 E.01976
G1 X201.625 Y185.331 E.01975
G1 X201 Y185.414 E.01976
G1 X200.375 Y185.331 E.01976
G1 X199.793 Y185.09 E.01975
G1 X199.293 Y184.707 E.01976
G1 X198.91 Y184.207 E.01976
G1 X198.669 Y183.625 E.01976
G1 X198.586 Y183 E.01976
G1 X198.669 Y182.375 E.01976
G1 X198.91 Y181.793 E.01976
G1 X199.293 Y181.293 E.01976
G1 X199.793 Y180.91 E.01976
G1 X200.375 Y180.669 E.01975
G1 X200.959 Y180.592 E.01846
G1 X201.563 Y180.661 E.01907
M204 S1000
G1 X201.906 Y180.385 F10800
;WIPE_START
G1 F8640
G1 X202.207 Y180.91 E-.15926
G1 X202.707 Y181.293 E-.14548
G1 X203.09 Y181.793 E-.14548
G1 X203.331 Y182.375 E-.14548
G1 X203.414 Y183 E-.14548
G1 X203.331 Y183.625 E-.14548
G1 X203.226 Y183.878 E-.06333
;WIPE_END
G1 E-.05 F2100
G1 Z.4 F720
G1 X222.213 Y182.951 F10800
G1 Z.2 F720
G1 E1 F2100
M204 S800
;TYPE:Perimeter
G1 F1200
G1 X222.301 Y182.277 E.02131
G1 X222.58 Y181.603 E.02287
G1 X223.024 Y181.024 E.02287
G1 X223.603 Y180.58 E.02287
G1 X224.277 Y180.301 E.02287
G1 X224.956 Y180.212 E.02148
G1 X225.719 Y180.299 E.02406
G1 X226.397 Y180.58 E.02302
G1 X226.976 Y181.024 E.02287
G1 X227.42 Y181.603 E.02287
G1 X227.699 Y182.277 E.02287
G1 X227.794 Y183 E.02287
G1 X227.699 Y183.723 E.02287
G1 X227.42 Y184.397 E.02287
G1 X226.976 Y184.976 E.02287
G1 X226.397 Y185.42 E.02287
G1 X225.723 Y185.699 E.02287
G1 X225 Y185.794 E.02287
G1 X224.277 Y185.699 E.02287
G1 X223.603 Y185.42 E.02287
G1 X223.024 Y184.976 E.02287
G1 X222.58 Y184.397 E.02287
G1 X222.301 Y183.723 E.02287
G1 X222.207 Y183.01 E.02254
M204 S1000
G1 X222.586 Y183 F10800
M204 S800
;TYPE:External perimeter
G1 F1200
G1 X222.669 Y182.375 E.01976
G1 X222.91 Y181.793 E.01976
G1 X223.293 Y181.293 E.01976
G1 X223.793 Y180.91 E.01976
G1 X224.375 Y180.669 E.01975
G1 X224.959 Y180.592 E.01846
G1 X225.623 Y180.668 E.02095
G1 X226.207 Y180.91 E.01981
G1 X226.707 Y181.293 E.01976
G1 X227.09 Y181.793 E.01976
G1 X227.331 Y182.375 E.01976
G1 X227.414 Y183 E.01976
G1 X227.331 Y183.625 E.01976
G1 X227.09 Y184.207 E.01976
G1 X226.707 Y184.707 E.01976
G1 X226.207 Y185.09 E.01976
G1 X225.625 Y185.331 E.01975
G1 X225 Y185.414 E.01976
G1 X224.375 Y185.331 E.01976
G1 X223.793 Y185.09 E.01975
G1 X223.293 Y184.707 E.01976
G1 X222.91 Y184.207 E.01976
G1 X222.669 Y183.625 E.01976
G1 X222.594 Y183.059 E.01787
M204 S1000
G1 X222.24 Y182.8 F10800
;WIPE_START
G1 F8640
G1 X222.669 Y182.375 E-.1589
G1 X222.91 Y181.793 E-.14548
G1 X223.293 Y181.293 E-.14548
G1 X223.793 Y180.91 E-.14548
G1 X224.375 Y180.669 E-.14548
G1 X224.959 Y180.592 E-.13598
G1 X225.274 Y180.628 E-.07319
;WIPE_END
G1 E-.05 F2100
G1 Z.4 F720
G1 X213.824 Y93.476 F10800
G1 Z.2 F720
G1 E1 F2100
M204 S800
;TYPE:Perimeter
G1 F1200
G1 X212.736 Y93.534 E.03414
G1 X211.694 Y93.384 E.03303
G1 X210.698 Y93.04 E.03303
G1 X209.786 Y92.513 E.03303
G1 X208.99 Y91.823 E.03303
G1 X208.339 Y90.996 E.03303
G1 X207.856 Y90.059 E.03303
G1 X207.559 Y89.049 E.03303
G1 X207.459 Y88 E.03303
G1 X207.559 Y86.951 E.03303
G1 X207.856 Y85.941 E.03303
G1 X208.339 Y85.004 E.03303
G1 X208.99 Y84.177 E.03303
G1 X209.786 Y83.487 E.03303
G1 X210.698 Y82.96 E.03303
G1 X211.694 Y82.616 E.03303
G1 X212.669 Y82.475 E.0309
G1 X213.785 Y82.515 E.03501
G1 X214.812 Y82.764 E.03314
G1 X215.77 Y83.202 E.03303
G1 X216.628 Y83.813 E.03303
G1 X217.355 Y84.575 E.03303
G1 X217.925 Y85.461 E.03303
G1 X218.316 Y86.439 E.03303
G1 X218.516 Y87.473 E.03303
G1 X218.516 Y88.527 E.03303
G1 X218.316 Y89.561 E.03303
G1 X217.925 Y90.539 E.03303
G1 X217.355 Y91.425 E.03303
G1 X216.628 Y92.187 E.03303
G1 X215.77 Y92.798 E.03303
G1 X214.812 Y93.236 E.03303
G1 X213.882 Y93.462 E.03002
M204 S1000
G1 X213.735 Y93.109 F10800
M204 S800
;TYPE:External perimeter
G1 F1200
G1 X212.754 Y93.156 E.03077
G1 X211.783 Y93.016 E.03077
G1 X210.856 Y92.695 E.03077
G1 X210.006 Y92.205 E.03077
G1 X209.264 Y91.562 E.03077
G1 X208.658 Y90.791 E.03077
G1 X208.208 Y89.918 E.03077
G1 X207.931 Y88.977 E.03077
G1 X207.838 Y88 E.03077
G1 X207.931 Y87.023 E.03077
G1 X208.208 Y86.082 E.03077
G1 X208.658 Y85.209 E.03077
G1 X209.264 Y84.438 E.03077
G1 X210.006 Y83.795 E.03077
G1 X210.856 Y83.305 E.03077
G1 X211.783 Y82.984 E.03077
G1 X212.69 Y82.853 E.02871
G1 X213.733 Y82.89 E.03275
G1 X214.688 Y83.122 E.03081
G1 X215.581 Y83.53 E.03077
G1 X216.38 Y84.099 E.03077
G1 X217.058 Y84.809 E.03077
G1 X217.588 Y85.635 E.03077
G1 X217.953 Y86.546 E.03077
G1 X218.138 Y87.509 E.03077
G1 X218.138 Y88.491 E.03077
G1 X217.953 Y89.454 E.03077
G1 X217.588 Y90.365 E.03077
G1 X217.058 Y91.191 E.03077
G1 X216.38 Y91.901 E.03077
G1 X215.581 Y92.47 E.03077
G1 X214.688 Y92.878 E.03077
G1 X213.793 Y93.095 E.02889
M204 S1000
G1 X213.586 Y93.481 F10800
;WIPE_START
G1 F8640
G1 X212.754 Y93.156 E-.24021
G1 X211.783 Y93.016 E-.22659
G1 X210.856 Y92.695 E-.22659
G1 X210.006 Y92.205 E-.22659
G1 X209.908 Y92.12 E-.03001
;WIPE_END
G1 E-.05 F2100
G1 Z.4 F720
G1 X202.436 Y65.389 F10800
G1 Z.2 F720
G1 E1 F2100
M204 S800
;TYPE:Perimeter
G1 F1200
G1 X201.723 Y65.699 E.02438
G1 X201 Y65.794 E.02287
G1 X200.277 Y65.699 E.02287
G1 X199.603 Y65.42 E.02287
G1 X199.024 Y64.976 E.02287
G1 X198.58 Y64.397 E.02287
G1 X198.301 Y63.723 E.02287
G1 X198.206 Y63 E.02287
G1 X198.301 Y62.277 E.02287
G1 X198.58 Y61.603 E.02287
G1 X199.024 Y61.024 E.02287
G1 X199.603 Y60.58 E.02287
G1 X200.277 Y60.301 E.02287
G1 X200.956 Y60.212 E.02148
G1 X201.719 Y60.299 E.02406
G1 X202.397 Y60.58 E.02302
G1 X202.976 Y61.024 E.02287
G1 X203.42 Y61.603 E.02287
G1 X203.699 Y62.277 E.02287
G1 X203.794 Y63 E.02287
G1 X203.699 Y63.723 E.02287
G1 X203.42 Y64.397 E.02287
G1 X202.976 Y64.976 E.02287
G1 X202.484 Y65.353 E.01943
M204 S1000
G1 X202.207 Y65.09 F10800
M204 S800
;TYPE:External perimeter
G1 F1200
G1 X201.625 Y65.331 E.01976
G1 X201 Y65.414 E.01976
G1 X200.375 Y65.331 E.01976
G1 X199.793 Y65.09 E.01975
G1 X199.293 Y64.707 E.01975
G1 X198.91 Y64.207 E.01976
G1 X198.669 Y63.625 E.01976
G1 X198.586 Y63 E.01976
G1 X198.669 Y62.375 E.01976
G1 X198.91 Y61.793 E.01976
G1 X199.293 Y61.293 E.01976
G1 X199.793 Y60.91 E.01975
G1 X200.375 Y60.669 E.01976
G1 X200.959 Y60.592 E.01846
G1 X201.623 Y60.668 E.02095
G1 X202.207 Y60.91 E.01981
G1 X202.707 Y61.293 E.01975
G1 X203.09 Y61.793 E.01976
G1 X203.331 Y62.375 E.01976
G1 X203.414 Y63 E.01976
G1 X203.331 Y63.625 E.01976
G1 X203.09 Y64.207 E.01976
G1 X202.707 Y64.707 E.01976
G1 X202.254 Y65.054 E.01787
M204 S1000
G1 X202.207 Y65.49 F10800
;WIPE_START
G1 F8640
G1 X201.625 Y65.331 E-.15891
G1 X201 Y65.414 E-.14548
G1 X200.375 Y65.331 E-.14548
G1 X199.793 Y65.09 E-.14548
G1 X199.293 Y64.707 E-.14548
G1 X198.91 Y64.207 E-.14548
G1 X198.804 Y63.952 E-.06368
;WIPE_END
G1 E-.05 F2100
G1 Z.4 F720
G1 X222.213 Y62.951 F10800
G1 Z.2 F720
G1 E1 F2100
M204 S800
;TYPE:Perimeter
G1 F1200
G1 X222.301 Y62.277 E.02131
G1 X222.58 Y61.603 E.02287
G1 X223.024 Y61.024 E.02287
G1 X223.603 Y60.58 E.02287
G1 X224.277 Y60.301 E.02287
G1 X224.956 Y60.212 E.02148
G1 X225.719 Y60.299 E.02406
G1 X226.397 Y60.58 E.02302
G1 X226.976 Y61.024 E.02287
G1 X227.42 Y61.603 E.02287
G1 X227.699 Y62.277 E.02287
G1 X227.794 Y63 E.02287
G1 X227.699 Y63.723 E.02287
G1 X227.42 Y64.397 E.02287
G1 X226.976 Y64.976 E.02287
G1 X226.397 Y65.42 E.02287
G1 X225.723 Y65.699 E.02287
G1 X225 Y65.794 E.02287
G1 X224.277 Y65.699 E.02287
G1 X223.603 Y65.42 E.02287
G1 X223.024 Y64.976 E.02287
G1 X222.58 Y64.397 E.02287
G1 X222.301 Y63.723 E.02287
G1 X222.207 Y63.01 E.02254
M204 S1000
G1 X222.586 Y63 F10800
M204 S800
;TYPE:External perimeter
G1 F1200
G1 X222.669 Y62.375 E.01976
G1 X222.91 Y61.793 E.01976
G1 X223.293 Y61.293 E.01976
G1 X223.793 Y60.91 E.01975
G1 X224.375 Y60.669 E.01976
G1 X224.959 Y60.592 E.01846
G1 X225.623 Y60.668 E.02095
G1 X226.207 Y60.91 E.01981
G1 X226.707 Y61.293 E.01975
G1 X227.09 Y61.793 E.01976
G1 X227.331 Y62.375 E.01976
G1 X227.414 Y63 E.01976
G1 X227.331 Y63.625 E.01976
G1 X227.09 Y64.207 E.01976
G1 X226.707 Y64.707 E.01976
G1 X226.207 Y65.09 E.01975
G1 X225.625 Y65.331 E.01976
G1 X225 Y65.414 E.01976
G1 X224.375 Y65.331 E.01976
G1 X223.793 Y65.09 E.01975
G1 X223.293 Y64.707 E.01975
G1 X222.91 Y64.207 E.01976
G1 X222.669 Y63.625 E.01976
G1 X222.594 Y63.059 E.01787
M204 S1000
G1 X222.24 Y62.8 F10800
;WIPE_START
G1 F8640
G1 X222.669 Y62.375 E-.15891
G1 X222.91 Y61.793 E-.14548
G1 X223.293 Y61.293 E-.14548
G1 X223.793 Y60.91 E-.14548
G1 X224.375 Y60.669 E-.14548
G1 X224.959 Y60.592 E-.13598
G1 X225.274 Y60.628 E-.07319
;WIPE_END
G1 E-.05 F2100
G1 Z.4 F720
G1 X227.815 Y58.854 F10800
G1 Z.2 F720
G1 E1 F2100
M204 S800
;TYPE:Perimeter
G1 F1200
G1 X228.61 Y59.045 E.02564
G1 X229.366 Y59.357 E.02564
G1 X230.063 Y59.785 E.02564
G1 X230.684 Y60.316 E.02564
G1 X231.215 Y60.937 E.02564
G1 X231.643 Y61.634 E.02564
G1 X231.955 Y62.39 E.02564
G1 X232.146 Y63.185 E.02564
G1 X232.213 Y64.031 E.02661
G1 X232.213 Y181.969 E3.69787
G1 X232.146 Y182.815 E.02661
G1 X231.955 Y183.61 E.02564
G1 X231.643 Y184.366 E.02564
G1 X231.215 Y185.063 E.02564
G1 X230.684 Y185.684 E.02564
G1 X230.063 Y186.215 E.02564
G1 X229.366 Y186.643 E.02564
G1 X228.61 Y186.955 E.02564
G1 X227.815 Y187.146 E.02564
